X: 45
% Old value - X: 1
T: The Shannon Jig
R: jig
M: 6/8
L: 1/8
K: Amaj
EAc EAd|EAc BAF|EAc EAd|cAB AFE|
EAc EAd|~c3 efg|aec BcB|1 ABA AFD:|2 ABA Acd||
|:~e3 fga|~e3 ecd|~e3 fga|~A3 AFE|
~e3 dfa|~c3 efg|aec BcB|1 ABA agf:|2 cAA AGF||    

